app/dist/common/images/deppon-logistics-coltd.svg

<svg height="18" viewBox="0 0 18 18" width="18" xmlns="http://www.w3.org/2000/svg"><path d="m0 0h18v18h-18z" fill="#003c8d"/><g fill="#ffe100"><path d="m5 7h2v6h-2z"/><path d="m9 7v2h-4v-2zm0 4v2h-4v-2zm4 0h-2v-6h2z"/><path d="m9 11v-2h4v2zm0-4v-2h4v2z"/></g></svg>

<!-- by TradingView --><svg width="18" height="18" viewBox="0 0 18 18" xmlns="http://www.w3.org/2000/svg"><path fill="#003C8D" d="M0 0h18v18H0z"/><path fill="#FFE100" d="M5 7h2v6H5z"/><path fill="#FFE100" d="M9 7v2H5V7zM9 11v2H5v-2zM13 11h-2V5h2z"/><path fill="#FFE100" d="M9 11V9h4v2zM9 7V5h4v2z"/></svg>
